Papirus/22x22/apps/kbreakout.svg

<svg xmlns="http://www.w3.org/2000/svg" width="22" height="22" version="1">
 <path fill="#667e47" d="m21 20v-18c0-0.554-0.446-1-1-1h-18c-0.554 0-1 0.446-1 1v18c0 0.554 0.446 1 1 1h18c0.554 0 1-0.446 1-1z"/>
 <path fill="#fff" opacity=".2" d="m2 1c-0.554 0-1 0.446-1 1v0.5c0-0.554 0.446-1 1-1h18c0.554 0 1 0.446 1 1v-0.5c0-0.554-0.446-1-1-1h-18z"/>
 <path opacity=".2" d="m1 20v0.5c0 0.554 0.446 1 1 1h18c0.554 0 1-0.446 1-1v-0.5c0 0.554-0.446 1-1 1h-18c-0.554 0-1-0.446-1-1z"/>
 <g opacity=".2" transform="translate(-1 -.5)">
  <rect width="9" height="2" x="7" y="19"/>
  <circle cx="13.5" cy="15.5" r="1.5"/>
  <rect width="3" height="3" x="10" y="4"/>
  <rect width="3" height="3" x="14" y="4"/>
  <rect width="3" height="3" x="18" y="4"/>
  <rect width="3" height="3" x="3" y="8"/>
  <rect width="3" height="3" x="10" y="8"/>
  <rect width="3" height="3" x="14" y="8"/>
 </g>
 <g fill="#ffff80" transform="translate(-1,-1)">
  <rect width="9" height="2" x="7" y="19"/>
  <circle cx="13.5" cy="15.5" r="1.5"/>
  <rect width="3" height="3" x="10" y="4"/>
  <rect width="3" height="3" x="14" y="4"/>
  <rect width="3" height="3" x="18" y="4"/>
  <rect width="3" height="3" x="3" y="8"/>
  <rect width="3" height="3" x="10" y="8"/>
  <rect width="3" height="3" x="14" y="8"/>
 </g>
</svg>

<svg xmlns="http://www.w3.org/2000/svg" width="22" height="22" version="1">
 <path style="fill:#667e47" d="M 21,20 V 2 C 21,1.446 20.554,1 20,1 H 2 C 1.446,1 1,1.446 1,2 v 18 c 0,0.554 0.446,1 1,1 h 18 c 0.554,0 1,-0.446 1,-1 z"/>
 <path style="opacity:0.1;fill:#ffffff" d="M 2,1 C 1.446,1 1,1.446 1,2 v 0.5 c 0,-0.554 0.446,-1 1,-1 h 18 c 0.554,0 1,0.446 1,1 V 2 C 21,1.446 20.554,1 20,1 Z"/>
 <path style="opacity:0.2" d="m 1,20 v 0.5 c 0,0.554 0.446,1 1,1 h 18 c 0.554,0 1,-0.446 1,-1 V 20 c 0,0.554 -0.446,1 -1,1 H 2 C 1.446,21 1,20.554 1,20 Z"/>
 <g style="opacity:0.2" transform="translate(-1,-0.5)">
  <rect width="9" height="2" x="7" y="19"/>
  <circle cx="13.5" cy="15.5" r="1.5"/>
  <rect width="3" height="3" x="10" y="4"/>
  <rect width="3" height="3" x="14" y="4"/>
  <rect width="3" height="3" x="18" y="4"/>
  <rect width="3" height="3" x="3" y="8"/>
  <rect width="3" height="3" x="10" y="8"/>
  <rect width="3" height="3" x="14" y="8"/>
 </g>
 <rect style="fill:#3f3f3f" width="9" height="2" x="6" y="18"/>
 <circle style="fill:#ffffff" cx="12.5" cy="14.5" r="1.5"/>
 <rect style="fill:#fcd800" width="3" height="3" x="9" y="3"/>
 <rect style="fill:#fcd800" width="3" height="3" x="13" y="3"/>
 <rect style="fill:#fcd800" width="3" height="3" x="17" y="3"/>
 <rect style="fill:#fcd800" width="3" height="3" x="2" y="7"/>
 <rect style="fill:#fcd800" width="3" height="3" x="9" y="7"/>
 <rect style="fill:#fcd800" width="3" height="3" x="13" y="7"/>
</svg>
